icons/social-bluesky-circle.svg

<svg id="strib-social-bluesky-circle" viewBox="0 0 16 16" width="16" height="16" fill="currentcolor" class="strib-icon strib-social-bluesky-circle" xmlns="http://www.w3.org/2000/svg">
  <path d="M8 1a7 7 0 1 1 0 14A7 7 0 0 1 8 1M6.025 5.335c-.577-.434-1.511-.771-1.511.299 0 .214.122 1.795.193 2.051.249.893 1.156 1.12 1.963.982-1.41.241-1.769 1.039-.994 1.836 1.471 1.515 2.115-.38 2.279-.865.049-.143.042-.14.09 0 .164.485.808 2.38 2.279.865.775-.797.416-1.595-.994-1.836.807.138 1.714-.089 1.963-.982.071-.256.193-1.837.193-2.051 0-1.07-.934-.733-1.511-.299C9.176 5.937 8.316 7.158 8 7.813c-.316-.655-1.176-1.876-1.975-2.478"/>
</svg>

<svg id="strib-social-bluesky-circle" viewBox="0 0 16 16" width="16" height="16" fill="currentcolor" class="strib-icon strib-social-bluesky-circle" xmlns="http://www.w3.org/2000/svg">
  <path d="M8,1C11.866,1 15,4.134 15,8C15,11.866 11.866,15 8,15C4.134,15 1,11.866 1,8C1,4.134 4.134,1 8,1ZM6.025,5.335C5.448,4.901 4.514,4.564 4.514,5.634C4.514,5.848 4.636,7.429 4.707,7.685C4.956,8.578 5.863,8.805 6.67,8.667C5.26,8.908 4.901,9.706 5.676,10.503C7.147,12.018 7.791,10.123 7.955,9.638C8.004,9.495 7.997,9.498 8.045,9.638C8.209,10.123 8.853,12.018 10.324,10.503C11.099,9.706 10.74,8.908 9.33,8.667C10.137,8.805 11.044,8.578 11.293,7.685C11.364,7.429 11.486,5.848 11.486,5.634C11.486,4.564 10.552,4.901 9.975,5.335C9.176,5.937 8.316,7.158 8,7.813C7.684,7.158 6.824,5.937 6.025,5.335Z"/>
</svg>
